X:170
T: Am Samstag Abend (2-72) S. 217
N: P0945
O: Lothringen
S: PINCK, Louis: Verklingende Weisen, Bd 2, Metz 1928]
R: Liebe, Untreue]
M: 3/4
L: 1/8
K: G
D2 | G4G2 | A2B2c2 | d3ed2 | c4
e2 | d3ed2 | G2A2B2 | c6- | c4
Bc | d2d2e2 | d3cA2 | B6 | A4
AB | c2c2d2 | B3AAG | G2F2
G2 | A2c2B2 | A2B2A2 | G6- | G4

